X: 285
T: A New Day
R: jig
M: 6/8
K: Gdorian
|:DGA B2G|~c2d BGF|Bdf d2d|fdc ~d2c|
ABA AGF|AGG FDC|B,CD {F}EDC|1 A,B,G, G,3:|2 DCD G3||
|:dcd ~f3|gbg fdc|Bdf d2f|fdf g2b|
fdd ~c3|cdB GFD|ABG {F}EDC|DCD G3:|

